;FLAVOR:Marlin
;TIME:8136
;Filament used: 10.8171m
;Layer height: 0.28
;MINX:26.254
;MINY:15.011
;MINZ:0.28
;MAXX:193.746
;MAXY:204.989
;MAXZ:1.6
;Generated with Cura_SteamEngine 5.0.0
M140 S55
M105
M190 S55
M104 S220
M105
M109 S220
M82 ;absolute extrusion mode
; Ender 3 Custom Start G-code
G92 E0 ; Reset Extruder
G28 ; Home all axes
G1 Z2.0 F3000 ; Move Z Axis up little to prevent scratching of Heat Bed
G1 X0.1 Y20 Z0.3 F5000.0 ; Move to start position
G1 X0.1 Y200.0 Z0.3 F1500.0 E15 ; Draw the first line
G1 X0.4 Y200.0 Z0.3 F5000.0 ; Move to side a little
G1 X0.4 Y20 Z0.3 F1500.0 E30 ; Draw the second line
G92 E0 ; Reset Extruder
G1 Z2.0 F3000 ; Move Z Axis up little to prevent scratching of Heat Bed
G1 X5 Y20 Z0.3 F5000.0 ; Move over to prevent blob squish
G92 E0
G92 E0
G1 F1500 E-6.5
;LAYER_COUNT:5
;LAYER:0
M107
G1 F300 Z0.48
G0 F6000 X32.354 Y58.127 Z0.48
G1 F300 Z0.48
G0 F6000 X26.255 Y68.55
;TYPE:SKIRT
G1 F300 Z0.28
G1 F1500 E0.20788
G1 F1200 X26.265 Y67.849 E0.24052
G1 X26.318 Y66.913 E0.28417
G1 X26.451 Y65.984 E0.32787
G1 X26.663 Y65.071 E0.37152
G1 X26.951 Y64.178 E0.41521
G1 X27.315 Y63.314 E0.45886
G1 X27.751 Y62.483 E0.50256
G1 X28.256 Y61.693 E0.54622
G1 X28.826 Y60.949 E0.58986
G1 X29.458 Y60.256 E0.63354
G1 X30.147 Y59.619 E0.67723
G1 X30.887 Y59.043 E0.7209
G1 X31.616 Y58.567 E0.76144
G1 X32.354 Y58.127 E0.80144
G1 X104.086 Y16.714 E4.65827
G1 X104.646 Y16.402 E4.68812
G1 X105.484 Y15.981 E4.73179
G1 X106.355 Y15.632 E4.77548
G1 X107.252 Y15.36 E4.81913
G1 X108.17 Y15.164 E4.86284
G1 X109.1 Y15.048 E4.90648
G1 X110.038 Y15.011 E4.95019
G1 X110.974 Y15.054 E4.99382
G1 X111.904 Y15.177 E5.0375
G1 X112.82 Y15.379 E5.08118
G1 X113.716 Y15.658 E5.12488
G1 X114.584 Y16.012 E5.16853
G1 X115.355 Y16.402 E5.20876
G1 X116.076 Y16.806 E5.24724
G1 X187.795 Y58.215 E9.10346
G1 X188.376 Y58.562 E9.13497
G1 X189.16 Y59.077 E9.17865
G1 X189.898 Y59.657 E9.22235
G1 X190.583 Y60.297 E9.26601
G1 X191.211 Y60.993 E9.30966
G1 X191.777 Y61.741 E9.35333
G1 X192.278 Y62.534 E9.39701
G1 X192.71 Y63.367 E9.44071
G1 X193.069 Y64.233 E9.48436
G1 X193.353 Y65.127 E9.52804
G1 X193.559 Y66.042 E9.57171
G1 X193.687 Y66.971 E9.61538
G1 X193.735 Y67.846 E9.65618
G1 X193.746 Y68.693 E9.69562
G1 X193.745 Y151.427 E13.54807
G1 X193.735 Y152.147 E13.5816
G1 X193.682 Y153.083 E13.62525
G1 X193.549 Y154.012 E13.66895
G1 X193.338 Y154.925 E13.71258
G1 X193.05 Y155.818 E13.75627
G1 X192.687 Y156.683 E13.79995
G1 X192.251 Y157.513 E13.84361
G1 X191.746 Y158.304 E13.88731
G1 X191.176 Y159.048 E13.93095
G1 X190.545 Y159.742 E13.97463
G1 X189.856 Y160.379 E14.01832
G1 X189.116 Y160.955 E14.06199
G1 X188.384 Y161.433 E14.10269
G1 X187.646 Y161.873 E14.1427
G1 X115.952 Y203.265 E17.99751
G1 X115.377 Y203.587 E18.0282
G1 X114.54 Y204.01 E18.07187
G1 X113.669 Y204.36 E18.11558
G1 X112.773 Y204.634 E18.1592
G1 X111.856 Y204.832 E18.20289
G1 X110.926 Y204.95 E18.24654
G1 X109.988 Y204.989 E18.29025
G1 X109.051 Y204.948 E18.33393
G1 X108.121 Y204.827 E18.3776
G1 X107.205 Y204.627 E18.42125
G1 X106.309 Y204.351 E18.46491
G1 X105.44 Y203.998 E18.50859
G1 X104.656 Y203.602 E18.54948
G1 X103.923 Y203.193 E18.58857
G1 X32.205 Y161.785 E22.44472
G1 X31.624 Y161.438 E22.47623
G1 X30.84 Y160.923 E22.51991
G1 X30.102 Y160.343 E22.56362
G1 X29.417 Y159.703 E22.60727
G1 X28.789 Y159.007 E22.65092
G1 X28.223 Y158.259 E22.6946
G1 X27.722 Y157.466 E22.73827
G1 X27.29 Y156.633 E22.78197
G1 X26.931 Y155.767 E22.82562
G1 X26.647 Y154.873 E22.8693
G1 X26.441 Y153.958 E22.91297
G1 X26.313 Y153.029 E22.95664
G1 X26.265 Y152.147 E22.99777
G1 X26.254 Y151.274 E23.03842
G1 X26.255 Y68.55 E26.8904
G0 F6000 X26.655 Y68.556
G1 F1200 X26.665 Y67.855 E26.92304
G1 X26.718 Y66.936 E26.96591
G1 X26.851 Y66.025 E27.00878
G1 X27.062 Y65.129 E27.05164
G1 X27.35 Y64.254 E27.09453
G1 X27.713 Y63.408 E27.1374
G1 X28.148 Y62.597 E27.18025
G1 X28.652 Y61.826 E27.22314
G1 X29.221 Y61.102 E27.26602
G1 X29.85 Y60.43 E27.30888
G1 X30.535 Y59.815 E27.35175
G1 X31.271 Y59.262 E27.39461
G1 X31.822 Y58.91 E27.42506
G1 X32.554 Y58.473 E27.46476
G1 X104.281 Y17.063 E31.32131
G1 X104.841 Y16.751 E31.35116
G1 X105.664 Y16.338 E31.39404
G1 X106.52 Y15.999 E31.43691
G1 X107.401 Y15.734 E31.47975
G1 X108.303 Y15.548 E31.52263
G1 X109.217 Y15.44 E31.56549
G1 X110.138 Y15.412 E31.6084
G1 X111.057 Y15.464 E31.65126
G1 X111.968 Y15.595 E31.69411
G1 X112.864 Y15.805 E31.73697
G1 X113.739 Y16.092 E31.77984
G1 X114.586 Y16.454 E31.82274
G1 X115.16 Y16.752 E31.85285
G1 X115.876 Y17.152 E31.89104
G1 X187.59 Y58.559 E35.747
G1 X188.171 Y58.906 E35.77852
G1 X188.94 Y59.411 E35.82136
G1 X189.663 Y59.982 E35.86425
G1 X190.333 Y60.614 E35.90714
G1 X190.946 Y61.301 E35.95001
G1 X191.497 Y62.038 E35.99286
G1 X191.981 Y62.821 E36.03573
G1 X192.396 Y63.643 E36.0786
G1 X192.739 Y64.497 E36.12146
G1 X193.005 Y65.379 E36.16435
G1 X193.194 Y66.28 E36.20722
G1 X193.305 Y67.194 E36.25009
G1 X193.335 Y67.852 E36.28076
G1 X193.346 Y68.693 E36.31993
G1 X193.345 Y151.421 E40.17209
G1 X193.335 Y152.141 E40.20562
G1 X193.282 Y153.06 E40.24848
G1 X193.15 Y153.971 E40.29135
G1 X192.939 Y154.868 E40.33425
G1 X192.651 Y155.742 E40.3771
G1 X192.289 Y156.588 E40.41995
G1 X191.854 Y157.4 E40.46285
G1 X191.35 Y158.171 E40.50574
G1 X190.782 Y158.895 E40.54859
G1 X190.153 Y159.567 E40.59145
G1 X189.468 Y160.182 E40.63431
G1 X188.732 Y160.735 E40.67718
G1 X188.178 Y161.09 E40.70782
G1 X187.446 Y161.527 E40.74751
G1 X115.756 Y202.916 E44.60209
G1 X115.181 Y203.238 E44.63278
G1 X114.359 Y203.652 E44.67563
G1 X113.504 Y203.994 E44.71851
G1 X112.623 Y204.26 E44.76137
G1 X111.722 Y204.449 E44.80423
G1 X110.808 Y204.558 E44.84709
G1 X109.888 Y204.588 E44.88996
G1 X108.968 Y204.538 E44.93286
G1 X108.057 Y204.409 E44.9757
G1 X107.16 Y204.201 E45.01858
G1 X106.285 Y203.916 E45.06143
G1 X105.437 Y203.556 E45.10433
G1 X104.85 Y203.253 E45.13509
G1 X104.123 Y202.847 E45.17386
G1 X32.41 Y161.441 E49.02976
G1 X31.829 Y161.094 E49.06127
G1 X31.06 Y160.589 E49.10411
G1 X30.337 Y160.018 E49.14701
G1 X29.667 Y159.386 E49.1899
G1 X29.054 Y158.699 E49.23277
G1 X28.503 Y157.962 E49.27562
G1 X28.019 Y157.179 E49.31848
G1 X27.604 Y156.357 E49.36136
G1 X27.261 Y155.503 E49.40421
G1 X26.995 Y154.621 E49.44711
G1 X26.806 Y153.72 E49.48998
G1 X26.695 Y152.806 E49.53285
G1 X26.665 Y152.141 E49.56384
G1 X26.654 Y151.274 E49.60422
G1 X26.655 Y68.556 E53.45592
G0 F6000 X27.055 Y68.562
G1 F1200 X27.065 Y67.861 E53.48856
G1 X27.118 Y66.959 E53.53063
G1 X27.25 Y66.066 E53.57267
G1 X27.461 Y65.187 E53.61476
G1 X27.749 Y64.331 E53.65681
G1 X28.111 Y63.504 E53.69885
G1 X28.545 Y62.712 E53.7409
G1 X29.048 Y61.962 E53.78295
G1 X29.615 Y61.259 E53.82501
G1 X30.241 Y60.609 E53.86703
G1 X30.923 Y60.016 E53.90911
G1 X32.027 Y59.253 E53.9716
G1 X32.754 Y58.82 E54.011
G1 X104.476 Y17.413 E57.86729
G1 X105.036 Y17.101 E57.89714
G1 X105.843 Y16.696 E57.93918
G1 X106.683 Y16.365 E57.98122
G1 X107.55 Y16.11 E58.02331
G1 X108.435 Y15.932 E58.06534
G1 X109.333 Y15.833 E58.10741
G1 X110.236 Y15.814 E58.14946
G1 X111.137 Y15.875 E58.19152
G1 X112.029 Y16.015 E58.23356
G1 X112.905 Y16.233 E58.27559
G1 X113.759 Y16.529 E58.31768
G1 X114.965 Y17.101 E58.37983
G1 X115.676 Y17.499 E58.41777
G1 X187.385 Y58.902 E62.27344
G1 X187.966 Y59.249 E62.30495
G1 X188.72 Y59.746 E62.34701
G1 X189.427 Y60.308 E62.38906
G1 X190.082 Y60.93 E62.43112
G1 X190.679 Y61.607 E62.47315
G1 X191.214 Y62.335 E62.51522
G1 X191.682 Y63.107 E62.55726
G1 X192.081 Y63.918 E62.59934
G1 X192.406 Y64.76 E62.64137
G1 X192.655 Y65.628 E62.68342
G1 X192.826 Y66.515 E62.72548
G1 X192.935 Y67.858 E62.78822
G1 X192.946 Y68.693 E62.82711
G1 X192.945 Y151.416 E66.67903
G1 X192.935 Y152.136 E66.71256
G1 X192.883 Y153.037 E66.75459
G1 X192.75 Y153.931 E66.79667
G1 X192.54 Y154.809 E66.83871
G1 X192.252 Y155.665 E66.88077
G1 X191.89 Y156.492 E66.9228
G1 X191.457 Y157.284 E66.96483
G1 X190.955 Y158.035 E67.0069
G1 X190.388 Y158.738 E67.04895
G1 X189.761 Y159.389 E67.09104
G1 X189.08 Y159.981 E67.13305
G1 X187.973 Y160.747 E67.19574
G1 X187.246 Y161.18 E67.23514
G1 X115.561 Y202.567 E71.08947
G1 X114.986 Y202.889 E71.12015
G1 X114.179 Y203.295 E71.16222
G1 X113.34 Y203.628 E71.20425
G1 X112.474 Y203.885 E71.24631
G1 X111.589 Y204.065 E71.28837
G1 X110.691 Y204.166 E71.33045
G1 X109.789 Y204.187 E71.37246
G1 X108.887 Y204.128 E71.41455
G1 X107.995 Y203.99 E71.45658
G1 X107.118 Y203.773 E71.49865
G1 X106.264 Y203.479 E71.5407
G1 X105.045 Y202.903 E71.60348
G1 X104.323 Y202.5 E71.64198
G1 X32.615 Y161.098 E75.49759
G1 X32.034 Y160.751 E75.5291
G1 X31.28 Y160.254 E75.57115
G1 X30.573 Y159.692 E75.61321
G1 X29.918 Y159.07 E75.65527
G1 X29.321 Y158.393 E75.6973
G1 X28.786 Y157.665 E75.73937
G1 X28.318 Y156.893 E75.7814
G1 X27.919 Y156.082 E75.82349
G1 X27.594 Y155.24 E75.86552
G1 X27.345 Y154.372 E75.90756
G1 X27.174 Y153.485 E75.94963
G1 X27.065 Y152.136 E76.01265
G1 X27.054 Y151.274 E76.05279
G1 X27.055 Y68.562 E79.9042
G1 F1500 E73.4042
G1 F300 Z0.48
;MESH:Plate V2.stl
G0 F6000 X109.999 Y193.768 Z0.48
;TYPE:WALL-OUTER
G1 F300 Z0.28
G1 F1500 E80.11208
G1 F1200 X182.545 Y151.883 E84.01272
G1 X182.545 Y68.117 E87.91322
G1 X109.999 Y26.232 E91.81386
G1 X37.455 Y68.117 E95.71443
G1 X37.455 Y110 E97.66468
G1 X37.455 Y151.883 E99.61492
G1 X109.999 Y193.768 E103.51549
G0 F6000 X109.999 Y193.306
;TYPE:WALL-INNER
G1 F1200 X182.145 Y151.652 E107.39462
G1 X182.145 Y68.348 E111.27361
G1 X109.999 Y26.694 E115.15274
G1 X37.855 Y68.348 E119.0318
G1 X37.855 Y110 E120.97129
G1 X37.855 Y151.652 E122.91078
G1 X109.999 Y193.306 E126.78983
G0 F6000 X109.998 Y192.889
;TYPE:SKIN
G1 F1200 X145.892 Y172.165 E128.71978
G1 X181.784 Y151.443 E130.64961
G1 X181.784 Y68.557 E134.50913
G1 X109.999 Y27.111 E138.36886
G1 X38.216 Y68.557 E142.22852
G1 X38.216 Y151.443 E146.08804
G1 X74.107 Y172.164 E148.0178
G1 X109.998 Y192.889 E149.94765
G1 F1500 E143.44765
G1 F300 Z0.48
G0 F6000 X38.415 Y150.987 Z0.48
G1 F300 Z0.28
G1 F1500 E150.15553
G1 F1200 X39.218 Y151.79 E150.20841
G1 F1500 E143.70841
G1 F300 Z0.48
G0 F6000 X40.557 Y152.563 Z0.48
G1 F300 Z0.28
G1 F1500 E150.41628
G1 F1200 X38.415 Y150.421 E150.55734
G0 F6000 X38.415 Y149.855
G1 F1200 X41.896 Y153.336 E150.78657
G1 F1500 E144.28657
G1 F300 Z0.48
G0 F6000 X43.234 Y154.108 Z0.48
G1 F300 Z0.28
G1 F1500 E150.99444
G1 F1200 X38.415 Y149.29 E151.31175
G0 F6000 X38.415 Y148.724
G1 F1200 X44.573 Y154.881 E151.71723
G1 F1500 E145.21723
G1 F300 Z0.48
G0 F6000 X45.911 Y155.654 Z0.48
G1 F300 Z0.28
G1 F1500 E151.92511
G1 F1200 X38.415 Y148.158 E152.41873
G0 F6000 X38.415 Y147.592
G1 F1200 X47.25 Y156.427 E153.00053
G1 F1500 E146.50053
G1 F300 Z0.48
G0 F6000 X48.588 Y157.2 Z0.48
G1 F300 Z0.28
G1 F1500 E153.20841
G1 F1200 X38.415 Y147.027 E153.87832
G0 F6000 X38.415 Y146.461
G1 F1200 X49.927 Y157.973 E154.6364
G1 F1500 E148.1364
G1 F300 Z0.48
G0 F6000 X51.265 Y158.746 Z0.48
G1 F300 Z0.28
G1 F1500 E154.84428
G1 F1200 X38.415 Y145.895 E155.6905
G0 F6000 X38.415 Y145.33
G1 F1200 X52.604 Y159.519 E156.62487
G1 F1500 E150.12487
G1 F300 Z0.48
G0 F6000 X53.943 Y160.291 Z0.48
G1 F300 Z0.28
G1 F1500 E156.83275
G1 F1200 X38.415 Y144.764 E157.85526
G0 F6000 X38.415 Y144.198
G1 F1200 X55.281 Y161.064 E158.96592
G1 F1500 E152.46592
G1 F300 Z0.48
G0 F6000 X56.62 Y161.837 Z0.48
G1 F300 Z0.28
G1 F1500 E159.17379
G1 F1200 X38.415 Y143.633 E160.37259
G0 F6000 X38.415 Y143.067
G1 F1200 X57.958 Y162.61 E161.65953
G1 F1500 E155.15953
G1 F300 Z0.48
G0 F6000 X59.297 Y163.383 Z0.48
G1 F300 Z0.28
G1 F1500 E161.86741
G1 F1200 X38.415 Y142.501 E163.24252
G0 F6000 X38.415 Y141.936
G1 F1200 X60.635 Y164.156 E164.70575
G1 F1500 E158.20575
G1 F300 Z0.48
G0 F6000 X61.974 Y164.929 Z0.48
G1 F300 Z0.28
G1 F1500 E164.91362
G1 F1200 X38.415 Y141.37 E166.46502
G0 F6000 X38.415 Y140.804
G1 F1200 X63.312 Y165.701 E168.10453
G1 F1500 E161.60453
G1 F300 Z0.48
G0 F6000 X64.651 Y166.474 Z0.48
G1 F300 Z0.28
G1 F1500 E168.31241
G1 F1200 X38.415 Y140.239 E170.04006
G0 F6000 X38.415 Y139.673
G1 F1200 X65.99 Y167.247 E171.85589
G1 F1500 E165.35589
G1 F300 Z0.48
G0 F6000 X67.328 Y168.02 Z0.48
G1 F300 Z0.28
G1 F1500 E172.06376
G1 F1200 X38.415 Y139.107 E173.96773
G0 F6000 X38.415 Y138.542
G1 F1200 X68.667 Y168.793 E175.95985
G1 F1500 E169.45985
G1 F300 Z0.48
G0 F6000 X70.005 Y169.566 Z0.48
G1 F300 Z0.28
G1 F1500 E176.16772
G1 F1200 X38.415 Y137.976 E178.24798
G0 F6000 X38.415 Y137.41
G1 F1200 X71.344 Y170.339 E180.41641
G1 F1500 E173.91641
G1 F300 Z0.48
G0 F6000 X72.682 Y171.112 Z0.48
G1 F300 Z0.28
G1 F1500 E180.62429
G1 F1200 X38.415 Y136.844 E182.88086
G0 F6000 X38.415 Y136.279
G1 F1200 X74.021 Y171.884 E185.22554
G1 F1500 E178.72554
G1 F300 Z0.48
G0 F6000 X75.359 Y172.657 Z0.48
G1 F300 Z0.28
G1 F1500 E185.43342
G1 F1200 X38.415 Y135.713 E187.86624
G0 F6000 X38.415 Y135.147
G1 F1200 X76.698 Y173.43 E190.38724
G1 F1500 E183.88724
G1 F300 Z0.48
G0 F6000 X78.037 Y174.203 Z0.48
G1 F300 Z0.28
G1 F1500 E190.59512
G1 F1200 X38.415 Y134.582 E193.20426
G0 F6000 X38.415 Y134.016
G1 F1200 X79.375 Y174.976 E195.90155
G1 F1500 E189.40155
G1 F300 Z0.48
G0 F6000 X80.714 Y175.749 Z0.48
G1 F300 Z0.28
G1 F1500 E196.10943
G1 F1200 X38.415 Y133.45 E198.89489
G0 F6000 X38.415 Y132.885
G1 F1200 X82.052 Y176.522 E201.76846
G1 F1500 E195.26846
G1 F300 Z0.48
G0 F6000 X83.391 Y177.295 Z0.48
G1 F300 Z0.28
G1 F1500 E201.97633
G1 F1200 X38.415 Y132.319 E204.93808
G0 F6000 X38.415 Y131.753
G1 F1200 X84.729 Y178.067 E207.98794
G1 F1500 E201.48794
G1 F300 Z0.48
G0 F6000 X86.068 Y178.84 Z0.48
G1 F300 Z0.28
G1 F1500 E208.19581
G1 F1200 X38.415 Y131.188 E211.33381
G0 F6000 X38.415 Y130.622
G1 F1200 X87.406 Y179.613 E214.55995
G1 F1500 E208.05995
G1 F300 Z0.48
G0 F6000 X88.745 Y180.386 Z0.48
G1 F300 Z0.28
G1 F1500 E214.76783
G1 F1200 X38.415 Y130.056 E218.08214
G0 F6000 X38.415 Y129.491
G1 F1200 X90.083 Y181.159 E221.48457
G1 F1500 E214.98457
G1 F300 Z0.48
G0 F6000 X91.422 Y181.932 Z0.48
G1 F300 Z0.28
G1 F1500 E221.69245
G1 F1200 X38.415 Y128.925 E225.18305
G0 F6000 X38.415 Y128.359
G1 F1200 X92.761 Y182.705 E228.76182
G1 F1500 E222.26182
G1 F300 Z0.48
G0 F6000 X94.099 Y183.477 Z0.48
G1 F300 Z0.28
G1 F1500 E228.9697
G1 F1200 X38.415 Y127.793 E232.63659
G0 F6000 X38.415 Y127.228
G1 F1200 X95.438 Y184.25 E236.39162
G1 F1500 E229.89162
G1 F300 Z0.48
G0 F6000 X96.776 Y185.023 Z0.48
G1 F300 Z0.28
G1 F1500 E236.59949
G1 F1200 X38.415 Y126.662 E240.44266
G0 F6000 X38.415 Y126.096
G1 F1200 X98.115 Y185.796 E244.37401
G1 F1500 E237.87401
G1 F300 Z0.48
G0 F6000 X99.453 Y186.569 Z0.48
G1 F300 Z0.28
G1 F1500 E244.58189
G1 F1200 X38.415 Y125.531 E248.60134
G0 F6000 X38.415 Y124.965
G1 F1200 X100.792 Y187.342 E252.70897
G1 F1500 E246.20897
G1 F300 Z0.48
G0 F6000 X102.13 Y188.114 Z0.48
G1 F300 Z0.28
G1 F1500 E252.91685
G1 F1200 X38.415 Y124.399 E257.11259
G0 F6000 X38.415 Y123.834
G1 F1200 X103.468 Y188.887 E261.39644
G1 F1500 E254.89644
G1 F300 Z0.48
G0 F6000 X104.807 Y189.66 Z0.48
G1 F300 Z0.28
G1 F1500 E261.60432
G1 F1200 X38.415 Y123.268 E265.97634
G0 F6000 X38.415 Y122.702
G1 F1200 X106.145 Y190.433 E270.43651
G1 F1500 E263.93651
G1 F300 Z0.48
G0 F6000 X107.484 Y191.205 Z0.48
G1 F300 Z0.28
G1 F1500 E270.64439
G1 F1200 X38.415 Y122.137 E275.19267
G0 F6000 X38.415 Y121.571
G1 F1200 X108.823 Y191.978 E279.82912
G0 F6000 X110.042 Y192.632
G1 F1200 X38.415 Y121.005 E284.54588
G0 F6000 X38.415 Y120.44
G1 F1200 X110.4 Y192.424 E289.28619
G0 F6000 X110.759 Y192.217
G1 F1200 X38.415 Y119.874 E294.05013
G0 F6000 X38.415 Y119.308
G1 F1200 X111.117 Y192.01 E298.83768
G0 F6000 X111.476 Y191.803
G1 F1200 X38.415 Y118.743 E303.64884
G0 F6000 X38.415 Y118.177
G1 F1200 X111.835 Y191.596 E308.48364
G0 F6000 X112.193 Y191.389
G1 F1200 X38.415 Y117.611 E313.34204
G0 F6000 X38.415 Y117.045
G1 F1200 X112.552 Y191.182 E318.22409
G0 F6000 X112.91 Y190.975
G1 F1200 X38.415 Y116.48 E323.12972
G0 F6000 X38.415 Y115.914
G1 F1200 X113.269 Y190.768 E328.05898
G0 F6000 X113.627 Y190.561
G1 F1200 X38.415 Y115.348 E333.01185
G0 F6000 X38.415 Y114.783
G1 F1200 X113.987 Y190.354 E337.98836
G0 F6000 X114.345 Y190.147
G1 F1200 X38.415 Y114.217 E342.98848
G0 F6000 X38.415 Y113.651
G1 F1200 X114.704 Y189.94 E348.01224
G0 F6000 X115.062 Y189.733
