;FLAVOR:Marlin
;TIME:3226
;Filament used: 4.1307m
;Layer height: 0.28
;MINX:57
;MINY:72.365
;MINZ:0.28
;MAXX:163
;MAXY:144.122
;MAXZ:3.28
;Generated with Cura_SteamEngine 5.0.0
M140 S55
M105
M190 S55
M104 S220
M105
M109 S220
M82 ;absolute extrusion mode
; Ender 3 Custom Start G-code
G92 E0 ; Reset Extruder
G28 ; Home all axes
G1 Z2.0 F3000 ; Move Z Axis up little to prevent scratching of Heat Bed
G1 X0.1 Y20 Z0.3 F5000.0 ; Move to start position
G1 X0.1 Y200.0 Z0.3 F1500.0 E15 ; Draw the first line
G1 X0.4 Y200.0 Z0.3 F5000.0 ; Move to side a little
G1 X0.4 Y20 Z0.3 F1500.0 E30 ; Draw the second line
G92 E0 ; Reset Extruder
G1 Z2.0 F3000 ; Move Z Axis up little to prevent scratching of Heat Bed
G1 X5 Y20 Z0.3 F5000.0 ; Move over to prevent blob squish
G92 E0
G92 E0
G1 F1500 E-6.5
;LAYER_COUNT:11
;LAYER:0
M107
G1 F300 Z0.48
G0 F6000 X60.886 Y74.992 Z0.48
G1 F300 Z0.48
G0 F6000 X57.001 Y83.89
;TYPE:SKIRT
G1 F300 Z0.28
G1 F1500 E0.20788
G1 F1200 X57.01 Y83.225 E0.23884
G1 X57.063 Y82.289 E0.2825
G1 X57.195 Y81.36 E0.32619
G1 X57.406 Y80.446 E0.36987
G1 X57.694 Y79.554 E0.41352
G1 X58.057 Y78.689 E0.4572
G1 X58.492 Y77.858 E0.50087
G1 X58.996 Y77.068 E0.54451
G1 X59.566 Y76.323 E0.58819
G1 X60.198 Y75.629 E0.63189
G1 X60.886 Y74.992 E0.67555
G1 X61.626 Y74.416 E0.71922
G1 X62.412 Y73.904 E0.7629
G1 X63.239 Y73.462 E0.80656
G1 X64.101 Y73.092 E0.85024
G1 X64.991 Y72.796 E0.89392
G1 X65.903 Y72.578 E0.93758
G1 X66.83 Y72.437 E0.98124
G1 X67.701 Y72.378 E1.02189
G1 X68.33 Y72.365 E1.05118
G1 X151.293 Y72.365 E4.91429
G1 X152.149 Y72.376 E4.95415
G1 X153.085 Y72.43 E4.99781
G1 X154.013 Y72.562 E5.04146
G1 X154.927 Y72.774 E5.08514
G1 X155.819 Y73.063 E5.12881
G1 X156.684 Y73.426 E5.17249
G1 X157.514 Y73.862 E5.21614
G1 X158.305 Y74.367 E5.25984
G1 X159.049 Y74.938 E5.30351
G1 X159.742 Y75.57 E5.34718
G1 X160.379 Y76.258 E5.39084
G1 X160.954 Y76.999 E5.43452
G1 X161.465 Y77.785 E5.47817
G1 X161.907 Y78.613 E5.52188
G1 X162.276 Y79.475 E5.56554
G1 X162.571 Y80.365 E5.6092
G1 X162.789 Y81.277 E5.65286
G1 X162.929 Y82.205 E5.69656
G1 X162.987 Y83.066 E5.73674
G1 X163 Y83.695 E5.76604
G1 X163 Y106.947 E6.84875
G1 X162.994 Y108.574 E6.92451
G1 X163 Y109.445 E6.96507
G1 X162.999 Y132.522 E8.03963
G1 X162.99 Y133.249 E8.07348
G1 X162.939 Y134.186 E8.11718
G1 X162.807 Y135.114 E8.16083
G1 X162.598 Y136.028 E8.20448
G1 X162.311 Y136.921 E8.24816
G1 X161.949 Y137.787 E8.29187
G1 X161.515 Y138.618 E8.33552
G1 X161.011 Y139.409 E8.37919
G1 X160.442 Y140.154 E8.42285
G1 X159.811 Y140.849 E8.46656
G1 X159.124 Y141.487 E8.51021
G1 X158.385 Y142.064 E8.55387
G1 X157.599 Y142.576 E8.59755
G1 X156.773 Y143.019 E8.64119
G1 X155.911 Y143.391 E8.68491
G1 X155.022 Y143.687 E8.72854
G1 X154.11 Y143.907 E8.77222
G1 X153.183 Y144.048 E8.81589
G1 X152.299 Y144.109 E8.85715
G1 X151.67 Y144.122 E8.88644
G1 X68.565 Y144.121 E12.75616
G1 X67.867 Y144.112 E12.78866
G1 X66.931 Y144.06 E12.83231
G1 X66.002 Y143.928 E12.87601
G1 X65.088 Y143.718 E12.91968
G1 X64.195 Y143.431 E12.96335
G1 X63.33 Y143.068 E13.00703
G1 X62.499 Y142.634 E13.05069
G1 X61.708 Y142.13 E13.09436
G1 X60.963 Y141.56 E13.13804
G1 X60.269 Y140.929 E13.18172
G1 X59.632 Y140.242 E13.22534
G1 X59.055 Y139.502 E13.26904
G1 X58.543 Y138.716 E13.31272
G1 X58.1 Y137.889 E13.3564
G1 X57.729 Y137.028 E13.40006
G1 X57.433 Y136.138 E13.44373
G1 X57.214 Y135.226 E13.4874
G1 X57.073 Y134.299 E13.53107
G1 X57.013 Y133.41 E13.57255
G1 X57 Y132.78 E13.6019
G1 X57 Y109.54 E14.68405
G1 X57.006 Y107.913 E14.75981
G1 X57 Y107.042 E14.80037
G1 X57.001 Y83.89 E15.87842
G0 F6000 X57.401 Y83.896
G1 F1200 X57.41 Y83.231 E15.90939
G1 X57.462 Y82.311 E15.9523
G1 X57.594 Y81.4 E15.99516
G1 X57.805 Y80.504 E16.03802
G1 X58.092 Y79.629 E16.0809
G1 X58.455 Y78.783 E16.12377
G1 X58.889 Y77.971 E16.16664
G1 X59.392 Y77.2 E16.20951
G1 X59.961 Y76.476 E16.25238
G1 X60.589 Y75.804 E16.29521
G1 X61.274 Y75.188 E16.33811
G1 X62.01 Y74.635 E16.38098
G1 X62.791 Y74.147 E16.42386
G1 X63.611 Y73.729 E16.46672
G1 X64.465 Y73.384 E16.5096
G1 X65.345 Y73.114 E16.55247
G1 X66.245 Y72.922 E16.59532
G1 X67.159 Y72.808 E16.63821
G1 X67.712 Y72.778 E16.66399
G1 X68.33 Y72.765 E16.69278
G1 X151.293 Y72.765 E20.55588
G1 X152.143 Y72.776 E20.59546
G1 X153.062 Y72.829 E20.63833
G1 X153.973 Y72.962 E20.6812
G1 X154.869 Y73.173 E20.72406
G1 X155.743 Y73.461 E20.76691
G1 X156.59 Y73.824 E20.80982
G1 X157.401 Y74.259 E20.85267
G1 X158.171 Y74.763 E20.89552
G1 X158.895 Y75.332 E20.9384
G1 X159.567 Y75.962 E20.98129
G1 X160.182 Y76.647 E21.02416
G1 X160.735 Y77.383 E21.06703
G1 X161.222 Y78.164 E21.10988
G1 X161.639 Y78.985 E21.15276
G1 X161.984 Y79.839 E21.19565
G1 X162.253 Y80.719 E21.2385
G1 X162.445 Y81.62 E21.28139
G1 X162.558 Y82.533 E21.32423
G1 X162.596 Y83.397 E21.3645
G1 X162.6 Y106.946 E22.46104
G1 X162.594 Y108.577 E22.53699
G1 X162.6 Y109.448 E22.57755
G1 X162.599 Y132.517 E23.65174
G1 X162.59 Y133.244 E23.68559
G1 X162.539 Y134.163 E23.72845
G1 X162.408 Y135.075 E23.77135
G1 X162.198 Y135.971 E23.8142
G1 X161.912 Y136.846 E23.85707
G1 X161.551 Y137.693 E23.89994
G1 X161.117 Y138.505 E23.94281
G1 X160.615 Y139.277 E23.98569
G1 X160.047 Y140.002 E24.02858
G1 X159.419 Y140.675 E24.07144
G1 X158.735 Y141.291 E24.1143
G1 X158 Y141.845 E24.15716
G1 X157.22 Y142.334 E24.20003
G1 X156.4 Y142.753 E24.24291
G1 X155.547 Y143.099 E24.28577
G1 X154.667 Y143.37 E24.32864
G1 X153.767 Y143.563 E24.37151
G1 X152.853 Y143.678 E24.4144
G1 X152.288 Y143.709 E24.44075
G1 X151.67 Y143.722 E24.46953
G1 X68.57 Y143.721 E28.33902
G1 X67.872 Y143.712 E28.37152
G1 X66.953 Y143.66 E28.41438
G1 X66.042 Y143.529 E28.45724
G1 X65.146 Y143.319 E28.50009
G1 X64.271 Y143.032 E28.54297
G1 X63.424 Y142.67 E28.58586
G1 X62.612 Y142.236 E28.62873
G1 X61.841 Y141.734 E28.67157
G1 X61.116 Y141.166 E28.71446
G1 X60.443 Y140.537 E28.75735
G1 X59.828 Y139.853 E28.80018
G1 X59.274 Y139.118 E28.84304
G1 X58.786 Y138.337 E28.88592
G1 X58.367 Y137.517 E28.9288
G1 X58.021 Y136.664 E28.97166
G1 X57.751 Y135.784 E29.01453
G1 X57.558 Y134.883 E29.05743
G1 X57.444 Y133.97 E29.10028
G1 X57.413 Y133.399 E29.1269
G1 X57.4 Y132.78 E29.15573
G1 X57.4 Y109.541 E30.23784
G1 X57.406 Y107.91 E30.31378
G1 X57.4 Y107.039 E30.35434
G1 X57.401 Y83.896 E31.43198
G0 F6000 X57.801 Y83.901
G1 F1200 X57.81 Y83.236 E31.46295
G1 X57.862 Y82.334 E31.50502
G1 X57.994 Y81.441 E31.54705
G1 X58.204 Y80.563 E31.58909
G1 X58.491 Y79.706 E31.63117
G1 X58.853 Y78.879 E31.67321
G1 X59.286 Y78.087 E31.71524
G1 X59.788 Y77.336 E31.7573
G1 X60.355 Y76.632 E31.79939
G1 X60.981 Y75.982 E31.84141
G1 X61.662 Y75.389 E31.88346
G1 X62.394 Y74.859 E31.92554
G1 X63.169 Y74.396 E31.96758
G1 X63.982 Y74.003 E32.00962
G1 X64.827 Y73.683 E32.0517
G1 X65.696 Y73.44 E32.09372
G1 X66.584 Y73.274 E32.13578
G1 X67.723 Y73.178 E32.189
G1 X68.33 Y73.165 E32.21728
G1 X151.293 Y73.165 E36.08038
G1 X152.137 Y73.176 E36.11968
G1 X153.039 Y73.229 E36.16176
G1 X153.932 Y73.361 E36.20379
G1 X154.81 Y73.572 E36.24584
G1 X155.666 Y73.86 E36.28789
G1 X156.493 Y74.222 E36.32993
G1 X157.285 Y74.657 E36.372
G1 X158.036 Y75.159 E36.41407
G1 X158.739 Y75.726 E36.45612
G1 X159.389 Y76.353 E36.49818
G1 X159.981 Y77.035 E36.54023
G1 X160.511 Y77.766 E36.58227
G1 X160.973 Y78.542 E36.62432
G1 X161.366 Y79.355 E36.66637
G1 X161.684 Y80.2 E36.70841
G1 X161.927 Y81.07 E36.75047
G1 X162.092 Y81.958 E36.79253
G1 X162.187 Y83.088 E36.84533
G1 X162.2 Y83.695 E36.8736
G1 X162.2 Y106.944 E37.95618
G1 X162.194 Y108.58 E38.03236
G1 X162.2 Y109.451 E38.07291
G1 X162.199 Y132.512 E39.14673
G1 X162.19 Y133.239 E39.18058
G1 X162.139 Y134.141 E39.22265
G1 X162.008 Y135.035 E39.26473
G1 X161.799 Y135.913 E39.30675
G1 X161.513 Y136.77 E39.34882
G1 X161.152 Y137.598 E39.39088
G1 X160.72 Y138.39 E39.43289
G1 X160.219 Y139.142 E39.47496
G1 X159.653 Y139.846 E39.51703
G1 X159.028 Y140.497 E39.55905
G1 X158.347 Y141.091 E39.60113
G1 X157.616 Y141.622 E39.6432
G1 X156.842 Y142.086 E39.68522
G1 X156.029 Y142.48 E39.72729
G1 X155.185 Y142.8 E39.76932
G1 X154.315 Y143.045 E39.8114
G1 X153.428 Y143.211 E39.85342
G1 X152.277 Y143.309 E39.90721
G1 X151.67 Y143.322 E39.93548
G1 X68.575 Y143.321 E43.80473
G1 X67.877 Y143.312 E43.83724
G1 X66.976 Y143.261 E43.87926
G1 X66.082 Y143.129 E43.92134
G1 X65.204 Y142.92 E43.96337
G1 X64.347 Y142.633 E44.00545
G1 X63.52 Y142.272 E44.04747
G1 X62.727 Y141.839 E44.08954
G1 X61.976 Y141.338 E44.13158
G1 X61.272 Y140.772 E44.17364
G1 X60.621 Y140.146 E44.21569
G1 X60.028 Y139.465 E44.25774
G1 X59.498 Y138.734 E44.29978
G1 X59.034 Y137.959 E44.34184
G1 X58.64 Y137.146 E44.38391
G1 X58.32 Y136.302 E44.42594
G1 X58.076 Y135.432 E44.46802
G1 X57.91 Y134.544 E44.51008
G1 X57.813 Y133.389 E44.56405
G1 X57.8 Y132.78 E44.59242
G1 X57.8 Y109.543 E45.67443
G1 X57.806 Y107.907 E45.75061
G1 X57.8 Y107.036 E45.79117
G1 X57.801 Y83.901 E46.86843
G1 F1500 E40.36843
G1 F300 Z0.48
;MESH:Magtest.stl(1)
G0 F6000 X68.2 Y107.165 Z0.48
;TYPE:WALL-OUTER
G1 F300 Z0.28
G1 F1500 E47.0763
G1 F1200 X151.8 Y107.165 E50.96907
G1 X151.8 Y95.365 E51.51853
G1 X151.8 Y83.565 E52.06799
G1 X68.2 Y83.565 E55.96075
G1 X68.2 Y107.165 E57.05967
G0 F6000 X68.6 Y106.765
;TYPE:WALL-INNER
G1 F1200 X151.4 Y106.765 E60.91518
G1 X151.4 Y95.365 E61.44601
G1 X151.4 Y83.965 E61.97684
G1 X68.6 Y83.965 E65.83236
G1 X68.6 Y106.765 E66.89402
G0 F6000 X68.96 Y106.405
;TYPE:SKIN
G1 F1200 X151.04 Y106.405 E70.71601
G1 X151.04 Y95.365 E71.23008
G1 X151.04 Y84.325 E71.74415
G1 X68.96 Y84.325 E75.56614
G1 X68.96 Y106.405 E76.59427
G0 F6000 X69.434 Y106.203
G1 F1200 X69.159 Y105.929 E76.61235
G0 F6000 X69.159 Y105.363
G1 F1200 X70 Y106.203 E76.6677
G0 F6000 X70.565 Y106.203
G1 F1200 X69.159 Y104.798 E76.76025
G0 F6000 X69.159 Y104.232
G1 F1200 X71.131 Y106.203 E76.89008
G0 F6000 X71.697 Y106.203
G1 F1200 X69.159 Y103.666 E77.05718
G0 F6000 X69.159 Y103.101
G1 F1200 X72.262 Y106.203 E77.26148
G0 F6000 X72.828 Y106.203
G1 F1200 X69.159 Y102.535 E77.50306
G0 F6000 X69.159 Y101.969
G1 F1200 X73.394 Y106.203 E77.78191
G0 F6000 X73.959 Y106.203
G1 F1200 X69.159 Y101.404 E78.09797
G0 F6000 X69.159 Y100.838
G1 F1200 X74.525 Y106.203 E78.45129
G0 F6000 X75.091 Y106.203
G1 F1200 X69.159 Y100.272 E78.84189
G0 F6000 X69.159 Y99.707
G1 F1200 X75.656 Y106.203 E79.2697
G0 F6000 X76.222 Y106.203
G1 F1200 X69.159 Y99.141 E79.73478
G0 F6000 X69.159 Y98.575
G1 F1200 X76.788 Y106.203 E80.23713
G0 F6000 X77.353 Y106.203
G1 F1200 X69.159 Y98.009 E80.77671
G0 F6000 X69.159 Y97.444
G1 F1200 X77.919 Y106.203 E81.35354
G0 F6000 X78.485 Y106.203
G1 F1200 X69.159 Y96.878 E81.96764
G0 F6000 X69.159 Y96.312
G1 F1200 X79.051 Y106.203 E82.61901
G0 F6000 X79.616 Y106.203
G1 F1200 X69.159 Y95.747 E83.30759
G0 F6000 X69.159 Y95.181
G1 F1200 X80.182 Y106.203 E84.03344
G0 F6000 X80.748 Y106.203
G1 F1200 X69.159 Y94.615 E84.79657
G0 F6000 X69.159 Y94.05
G1 F1200 X81.313 Y106.203 E85.59689
G0 F6000 X81.879 Y106.203
G1 F1200 X69.159 Y93.484 E86.4345
G0 F6000 X69.159 Y92.918
G1 F1200 X82.445 Y106.203 E87.30937
G0 F6000 X83.01 Y106.203
G1 F1200 X69.159 Y92.353 E88.22145
G0 F6000 X69.159 Y91.787
G1 F1200 X83.576 Y106.203 E89.1708
G0 F6000 X84.142 Y106.203
G1 F1200 X69.159 Y91.221 E90.15742
G0 F6000 X69.159 Y90.656
G1 F1200 X84.707 Y106.203 E91.18125
G0 F6000 X85.273 Y106.203
G1 F1200 X69.159 Y90.09 E92.24235
G0 F6000 X69.159 Y89.524
G1 F1200 X85.839 Y106.203 E93.34073
G0 F6000 X86.404 Y106.203
G1 F1200 X69.159 Y88.958 E94.47634
G0 F6000 X69.159 Y88.393
G1 F1200 X86.97 Y106.203 E95.64919
G0 F6000 X87.536 Y106.203
G1 F1200 X69.159 Y87.827 E96.85931
G0 F6000 X69.159 Y87.261
G1 F1200 X88.101 Y106.203 E98.10668
G0 F6000 X88.667 Y106.203
G1 F1200 X69.159 Y86.696 E99.39128
G0 F6000 X69.159 Y86.13
G1 F1200 X89.233 Y106.203 E100.71315
G0 F6000 X89.799 Y106.203
G1 F1200 X69.159 Y85.564 E102.0723
G0 F6000 X69.159 Y84.999
G1 F1200 X90.364 Y106.203 E103.46865
G0 F6000 X90.93 Y106.203
G1 F1200 X69.251 Y84.524 E104.89625
G0 F6000 X69.816 Y84.524
G1 F1200 X91.496 Y106.203 E106.32388
G0 F6000 X92.061 Y106.203
G1 F1200 X70.382 Y84.524 E107.75148
G0 F6000 X70.948 Y84.524
G1 F1200 X92.627 Y106.203 E109.17908
G0 F6000 X93.193 Y106.203
G1 F1200 X71.513 Y84.524 E110.60671
G0 F6000 X72.079 Y84.524
G1 F1200 X93.758 Y106.203 E112.03431
G0 F6000 X94.324 Y106.203
G1 F1200 X72.645 Y84.524 E113.46191
G0 F6000 X73.211 Y84.524
G1 F1200 X94.89 Y106.203 E114.88951
G0 F6000 X95.455 Y106.203
G1 F1200 X73.776 Y84.524 E116.31711
G0 F6000 X74.342 Y84.524
G1 F1200 X96.021 Y106.203 E117.74471
G0 F6000 X96.587 Y106.203
G1 F1200 X74.908 Y84.524 E119.17231
G0 F6000 X75.473 Y84.524
G1 F1200 X97.152 Y106.203 E120.59991
G0 F6000 X97.718 Y106.203
G1 F1200 X76.039 Y84.524 E122.02751
G0 F6000 X76.605 Y84.524
G1 F1200 X98.284 Y106.203 E123.45511
G0 F6000 X98.849 Y106.203
G1 F1200 X77.17 Y84.524 E124.88271
G0 F6000 X77.736 Y84.524
G1 F1200 X99.415 Y106.203 E126.31031
G0 F6000 X99.981 Y106.203
G1 F1200 X78.302 Y84.524 E127.73791
G0 F6000 X78.867 Y84.524
G1 F1200 X100.547 Y106.203 E129.16554
G0 F6000 X101.112 Y106.203
G1 F1200 X79.433 Y84.524 E130.59314
G0 F6000 X79.999 Y84.524
G1 F1200 X101.678 Y106.203 E132.02074
G0 F6000 X102.244 Y106.203
G1 F1200 X80.564 Y84.524 E133.44837
G0 F6000 X81.13 Y84.524
G1 F1200 X102.809 Y106.203 E134.87597
G0 F6000 X103.375 Y106.203
G1 F1200 X81.696 Y84.524 E136.30357
G0 F6000 X82.261 Y84.524
G1 F1200 X103.941 Y106.203 E137.7312
G0 F6000 X104.506 Y106.203
G1 F1200 X82.827 Y84.524 E139.1588
G0 F6000 X83.393 Y84.524
G1 F1200 X105.072 Y106.203 E140.5864
G0 F6000 X105.638 Y106.203
G1 F1200 X83.959 Y84.524 E142.014
G0 F6000 X84.524 Y84.524
G1 F1200 X106.203 Y106.203 E143.44159
G0 F6000 X106.769 Y106.203
G1 F1200 X85.09 Y84.524 E144.86919
G0 F6000 X85.656 Y84.524
G1 F1200 X107.335 Y106.203 E146.29679
G0 F6000 X107.9 Y106.203
G1 F1200 X86.221 Y84.524 E147.72439
G0 F6000 X86.787 Y84.524
G1 F1200 X108.466 Y106.203 E149.15199
G0 F6000 X109.032 Y106.203
G1 F1200 X87.353 Y84.524 E150.57959
G0 F6000 X87.918 Y84.524
G1 F1200 X109.598 Y106.203 E152.00722
G0 F6000 X110.164 Y106.204
G1 F1200 X88.484 Y84.524 E153.43489
G0 F6000 X89.05 Y84.524
G1 F1200 X110.73 Y106.204 E154.86255
G0 F6000 X111.295 Y106.204
G1 F1200 X89.615 Y84.524 E156.29022
G0 F6000 X90.181 Y84.524
G1 F1200 X111.861 Y106.204 E157.71788
G0 F6000 X112.427 Y106.204
G1 F1200 X90.747 Y84.524 E159.14555
G0 F6000 X91.312 Y84.524
G1 F1200 X112.992 Y106.204 E160.57321
G0 F6000 X113.558 Y106.204
G1 F1200 X91.878 Y84.524 E162.00088
G0 F6000 X92.444 Y84.524
G1 F1200 X114.124 Y106.204 E163.42854
G0 F6000 X114.689 Y106.204
G1 F1200 X93.009 Y84.524 E164.85621
G0 F6000 X93.575 Y84.524
G1 F1200 X115.255 Y106.204 E166.28387
G0 F6000 X115.821 Y106.204
G1 F1200 X94.141 Y84.524 E167.71154
G0 F6000 X94.707 Y84.524
G1 F1200 X116.386 Y106.204 E169.13917
G0 F6000 X116.952 Y106.204
G1 F1200 X95.272 Y84.524 E170.56684
G0 F6000 X95.838 Y84.524
G1 F1200 X117.518 Y106.204 E171.9945
G0 F6000 X118.084 Y106.204
G1 F1200 X96.404 Y84.524 E173.42217
G0 F6000 X96.969 Y84.524
G1 F1200 X118.649 Y106.204 E174.84983
G0 F6000 X119.215 Y106.204
G1 F1200 X97.535 Y84.524 E176.2775
G0 F6000 X98.101 Y84.524
G1 F1200 X119.781 Y106.204 E177.70516
G0 F6000 X120.346 Y106.204
G1 F1200 X98.666 Y84.524 E179.13283
G0 F6000 X99.232 Y84.524
G1 F1200 X120.912 Y106.204 E180.56049
G0 F6000 X121.478 Y106.204
G1 F1200 X99.798 Y84.524 E181.98816
G0 F6000 X100.363 Y84.524
G1 F1200 X122.043 Y106.204 E183.41582
G0 F6000 X122.609 Y106.204
G1 F1200 X100.929 Y84.524 E184.84349
G0 F6000 X101.495 Y84.524
G1 F1200 X123.175 Y106.204 E186.27115
G0 F6000 X123.74 Y106.204
G1 F1200 X102.06 Y84.524 E187.69882
G0 F6000 X102.626 Y84.524
G1 F1200 X124.306 Y106.204 E189.12648
G0 F6000 X124.872 Y106.204
G1 F1200 X103.192 Y84.524 E190.55415
G0 F6000 X103.758 Y84.524
G1 F1200 X125.437 Y106.204 E191.98178
G0 F6000 X126.003 Y106.204
G1 F1200 X104.323 Y84.524 E193.40944
G0 F6000 X104.889 Y84.524
G1 F1200 X126.569 Y106.204 E194.83711
G0 F6000 X127.134 Y106.204
G1 F1200 X105.455 Y84.524 E196.26474
G0 F6000 X106.02 Y84.524
G1 F1200 X127.7 Y106.204 E197.6924
G0 F6000 X128.266 Y106.204
G1 F1200 X106.586 Y84.524 E199.12007
G0 F6000 X107.152 Y84.524
G1 F1200 X128.832 Y106.204 E200.54773
